X: 7636
T:Polska
R:Polska
O:Sweden
M:3/4
K:ADor
A2 zA c>c|  B>B G>G B>B | A>c e2 (3gag| \
f>f d>d f>f | e>c A2 (3cdc | \
(3B2G2B2 d>c|
Ad d>e| (3fdf e4 :: \
(3A2c2e2 g>b | b>a (3aba f>g |
a>g e>c A>c|\
(3B2G2B2 d>c| (3A2c2e2 g>b|b>a (3aba f>g|\
a>g e>c A>c | (3BGB A4:|
